images/item-started3.svg

<svg width="32" height="32" viewBox="0 0 32 32" fill="none" xmlns="http://www.w3.org/2000/svg">
<path fill-rule="evenodd" clip-rule="evenodd" d="M18.6667 5C17.7462 5 17 5.74619 17 6.66667C17 7.58714 17.7462 8.33333 18.6667 8.33333C19.5871 8.33333 20.3333 7.58714 20.3333 6.66667C20.3333 5.74619 19.5871 5 18.6667 5ZM15 6.66667C15 4.64162 16.6416 3 18.6667 3C20.6917 3 22.3333 4.64162 22.3333 6.66667C22.3333 8.69171 20.6917 10.3333 18.6667 10.3333C16.6416 10.3333 15 8.69171 15 6.66667Z" fill="#8060F6"/>
<path fill-rule="evenodd" clip-rule="evenodd" d="M19.9987 23.667C19.0782 23.667 18.332 24.4132 18.332 25.3337C18.332 26.2541 19.0782 27.0003 19.9987 27.0003C20.9192 27.0003 21.6654 26.2541 21.6654 25.3337C21.6654 24.4132 20.9192 23.667 19.9987 23.667ZM16.332 25.3337C16.332 23.3086 17.9737 21.667 19.9987 21.667C22.0237 21.667 23.6654 23.3086 23.6654 25.3337C23.6654 27.3587 22.0237 29.0003 19.9987 29.0003C17.9737 29.0003 16.332 27.3587 16.332 25.3337Z" fill="#8060F6"/>
<path fill-rule="evenodd" clip-rule="evenodd" d="M10.6667 14.333C9.74619 14.333 9 15.0792 9 15.9997C9 16.9201 9.74619 17.6663 10.6667 17.6663C11.5871 17.6663 12.3333 16.9201 12.3333 15.9997C12.3333 15.0792 11.5871 14.333 10.6667 14.333ZM7 15.9997C7 13.9746 8.64162 12.333 10.6667 12.333C12.6917 12.333 14.3333 13.9746 14.3333 15.9997C14.3333 18.0247 12.6917 19.6663 10.6667 19.6663C8.64162 19.6663 7 18.0247 7 15.9997Z" fill="#292758"/>
<path fill-rule="evenodd" clip-rule="evenodd" d="M3 6.66699C3 6.11471 3.44772 5.66699 4 5.66699H16C16.5523 5.66699 17 6.11471 17 6.66699C17 7.21928 16.5523 7.66699 16 7.66699H4C3.44772 7.66699 3 7.21928 3 6.66699Z" fill="#8060F6"/>
<path fill-rule="evenodd" clip-rule="evenodd" d="M20.332 6.66699C20.332 6.11471 20.7797 5.66699 21.332 5.66699H27.9987C28.551 5.66699 28.9987 6.11471 28.9987 6.66699C28.9987 7.21928 28.551 7.66699 27.9987 7.66699H21.332C20.7797 7.66699 20.332 7.21928 20.332 6.66699Z" fill="#8060F6"/>
<path fill-rule="evenodd" clip-rule="evenodd" d="M3 16C3 15.4477 3.44772 15 4 15H8C8.55229 15 9 15.4477 9 16C9 16.5523 8.55229 17 8 17H4C3.44772 17 3 16.5523 3 16Z" fill="#292758"/>
<path fill-rule="evenodd" clip-rule="evenodd" d="M12.332 16C12.332 15.4477 12.7797 15 13.332 15H27.9987C28.551 15 28.9987 15.4477 28.9987 16C28.9987 16.5523 28.551 17 27.9987 17H13.332C12.7797 17 12.332 16.5523 12.332 16Z" fill="#292758"/>
<path fill-rule="evenodd" clip-rule="evenodd" d="M3 25.333C3 24.7807 3.44772 24.333 4 24.333H17.3333C17.8856 24.333 18.3333 24.7807 18.3333 25.333C18.3333 25.8853 17.8856 26.333 17.3333 26.333H4C3.44772 26.333 3 25.8853 3 25.333Z" fill="#8060F6"/>
<path fill-rule="evenodd" clip-rule="evenodd" d="M21.668 25.333C21.668 24.7807 22.1157 24.333 22.668 24.333H28.0013C28.5536 24.333 29.0013 24.7807 29.0013 25.333C29.0013 25.8853 28.5536 26.333 28.0013 26.333H22.668C22.1157 26.333 21.668 25.8853 21.668 25.333Z" fill="#8060F6"/>
</svg>

<svg width="32" height="32" fill="none" xmlns="http://www.w3.org/2000/svg"><path fill-rule="evenodd" clip-rule="evenodd" d="M18.667 5a1.667 1.667 0 1 0 0 3.333 1.667 1.667 0 0 0 0-3.333ZM15 6.667a3.667 3.667 0 1 1 7.333 0 3.667 3.667 0 0 1-7.333 0ZM19.999 23.667a1.667 1.667 0 1 0 0 3.333 1.667 1.667 0 0 0 0-3.333Zm-3.667 1.667a3.667 3.667 0 1 1 7.333 0 3.667 3.667 0 0 1-7.333 0Z" fill="#8060F6"/><path fill-rule="evenodd" clip-rule="evenodd" d="M10.667 14.333a1.667 1.667 0 1 0 0 3.333 1.667 1.667 0 0 0 0-3.333ZM7 16a3.667 3.667 0 1 1 7.333 0A3.667 3.667 0 0 1 7 16Z" fill="#292758"/><path fill-rule="evenodd" clip-rule="evenodd" d="M3 6.667a1 1 0 0 1 1-1h12a1 1 0 1 1 0 2H4a1 1 0 0 1-1-1ZM20.332 6.667a1 1 0 0 1 1-1h6.667a1 1 0 1 1 0 2h-6.667a1 1 0 0 1-1-1Z" fill="#8060F6"/><path fill-rule="evenodd" clip-rule="evenodd" d="M3 16a1 1 0 0 1 1-1h4a1 1 0 1 1 0 2H4a1 1 0 0 1-1-1ZM12.332 16a1 1 0 0 1 1-1h14.667a1 1 0 1 1 0 2H13.332a1 1 0 0 1-1-1Z" fill="#292758"/><path fill-rule="evenodd" clip-rule="evenodd" d="M3 25.333a1 1 0 0 1 1-1h13.333a1 1 0 1 1 0 2H4a1 1 0 0 1-1-1ZM21.668 25.333a1 1 0 0 1 1-1h5.333a1 1 0 1 1 0 2h-5.333a1 1 0 0 1-1-1Z" fill="#8060F6"/></svg>
